X: 1
T: LADS-A-BUNCHUM
S: MDT
O: Adderbury
P: A or Ch(A2B)6
B: Morris Ring
Z: 2005 John Chambers <jc@trillian.mit.edu>
W: Oh dear mother, what a fool I be;
W: Here are six young fellows come a-courting me.
W: Three are blind and the others can't see.
W: Oh dear mother, what a fool I be;
M: 2/2
L: 1/8
K: F
P: A
     A3B ABcd | B2G2 G2AB | c2c2 cBAG | F2F2 F4 :|
P: B
fe | d2c2 c2FG | A2A2 A2fe | d2c2 B2A2 "*"| G2F2 F2fe |
     d2c2 c2FG | A2A2 A2fe | d2c2 A2F2    | G2F2 F4  ||
P: Alt.bars B3,4
   | d2c2 c2FG "*"| A2G2 G2fe | y8 y8 y8 y8

